static/logos/dribbble-wordmark-color.svg

<svg width="100" height="27" viewBox="0 0 100 27" fill="none" xmlns="http://www.w3.org/2000/svg">
<path fill-rule="evenodd" clip-rule="evenodd" d="M99.845 19.9434C95.6662 27.0282 89.0482 24.9724 87.0605 23.3628C86.2146 23.9368 84.7313 25.1948 82.7534 25.0495C78.5412 24.7403 77.0328 18.7209 77.0328 18.7209C77.063 18.7449 75.778 19.1643 75.0836 19.1568C75.0746 20.922 73.5487 25.1389 69.4305 25.0849C64.8093 25.0247 63.8699 18.1399 63.8699 18.1399C63.8699 18.1399 63.41 18.7785 61.6614 19.4145C61.7495 18.0584 61.6851 24.8785 56.1464 24.9788C51.7678 25.0581 50.5858 18.0338 50.5858 18.0338C50.5858 18.0338 49.8262 18.8228 48.3541 19.0965C48.4476 17.7182 48.2955 25.0019 42.7562 24.9788C39.0128 24.9632 37.7336 20.6518 37.833 20.0534C37.96 19.2907 36.5679 25.086 32.9317 24.9957C31.4312 24.9517 30.3125 23.8652 29.6105 22.4168C28.6708 23.492 27.3064 24.9957 25.7759 24.9957C23.0286 24.9957 21.8174 22.6978 22.0225 16.1347C22.04 15.3563 21.9838 15.0501 21.21 14.9336C20.7455 14.8561 20.2699 14.7094 19.7666 14.632C19.6053 15.1703 18.2371 24.8206 13.5325 25.0038C11.9542 25.0652 11.0912 23.698 10.3824 22.6832C9.29601 24.1205 7.86185 25.0495 5.81878 25.0495C2.35796 25.0495 0 22.2518 0 18.8006C0 15.3493 2.35796 12.5518 5.81878 12.5518C6.43068 12.5518 6.60246 12.6395 7.16147 12.8026C6.01184 2.33552 8.72682 0.699662 11.1018 0.699662C13.382 0.699662 17.2774 5.99184 11.7962 19.4156C13.0131 23.4195 15.6366 23.1931 16.8972 14.9507C17.1538 13.2753 16.4678 11.0144 17.5349 10.6989C19.4855 10.1222 19.6925 11.8524 20.6071 12.1407C21.5742 12.4454 22.1387 12.4156 23.0671 12.6095C24.6536 12.9193 25.2726 13.7715 25.0793 15.6697C24.8472 18.0714 24.4412 21.567 25.6792 21.9931C26.572 22.3026 28.202 20.4511 28.488 19.4381C28.7739 18.4251 28.8337 18.0784 28.8591 17.3353C28.8978 15.7473 28.9463 14.5832 29.2171 13.3823C29.333 12.9175 29.4651 12.6098 29.9909 12.5887C30.4236 12.5777 31.2147 12.4474 31.563 12.7185C32.0272 13.0673 31.9692 13.4213 31.9159 14.3527C31.3761 27.6335 35.5313 21.0036 36.7703 15.6951C36.3291 9.69235 36.632 0.809582 40.3936 0.660602C42.3499 0.583124 43.2147 2.15035 43.3099 3.32014C43.5789 6.62406 42.0717 12.0969 40.0895 15.7774C38.9566 23.2873 45.0428 24.7722 46.0161 18.7778C44.4237 18.0207 42.7028 14.9563 44.1032 13.4628C44.8889 12.6247 48.1599 13.8288 48.2134 16.4548C49.8179 16.0257 50.0321 15.1198 50.0543 15.2699C49.6133 9.26721 50.0224 0.809659 53.7842 0.660678C55.7403 0.5832 56.605 2.15043 56.7001 3.32022C56.9692 6.62413 55.462 12.097 53.48 15.7776C52.347 23.2873 58.4333 24.7723 59.4063 18.778C58.2274 18.5505 55.7387 15.291 57.1746 13.463C57.942 12.486 61.2009 14.5176 61.5658 16.5418C63.1071 16.1056 63.3164 15.2285 63.3386 15.3761C62.8974 9.37359 63.3064 0.916041 67.0683 0.767061C69.0243 0.689582 69.8891 2.25681 69.9842 3.4266C70.2533 6.73051 68.7461 12.2035 66.7638 15.884C65.6311 23.3939 71.7172 24.8785 72.6905 18.8842C71.0704 18.6144 68.7679 15.1728 70.6211 13.4122C71.3614 12.7087 74.1905 14.5348 74.8528 16.6181C75.7729 16.5827 76.3457 16.2653 76.4684 16.2334C74.9995 9.18652 76.093 0.731361 80.1397 0.660782C82.327 0.622671 84.4653 1.84323 83.5267 8.54736C82.6308 14.9439 79.4104 17.6282 79.4179 17.6693C79.6053 18.4356 81.2578 24.8488 85.4191 21.4649C85.2037 20.9772 84.988 20.4789 84.8675 19.8752C84.1778 16.3588 85.5325 12.3869 89.2147 11.745C91.3245 11.3772 93.3118 12.4043 93.6261 14.7199C94.143 18.509 90.7216 21.2531 89.4205 21.8484C88.8378 21.5173 94.7029 25.2789 98.1837 17.7406C98.3855 17.3102 98.6288 17.3467 98.9441 17.5685C99.1667 17.7252 100.435 18.9265 99.845 19.9434ZM8.33621 17.8695C8.1591 17.3401 7.79564 16.1734 7.66712 15.6678C6.95928 15.0523 6.45404 14.9523 5.54546 14.9523C3.52632 14.9523 2.33788 16.8192 2.33788 18.8322C2.33788 20.8451 3.63259 22.7122 5.65175 22.7122C7.40158 22.7122 8.73335 21.5224 9.13967 19.8382C8.85528 19.1817 8.57316 18.5782 8.33621 17.8695ZM11.0524 3.47038C9.63359 3.47038 9.15232 6.85485 9.24571 9.74213C9.32833 12.2948 10.0416 14.5422 10.4117 15.5492C10.5056 15.6753 10.4882 15.5932 10.572 15.727C13.0354 10.3296 12.0137 3.47038 11.0524 3.47038ZM40.5962 3.57669C38.7625 3.36639 38.7743 11.0051 39.002 12.7185C39.9543 11.195 41.6087 3.9869 40.5962 3.57669ZM53.9864 3.57669C52.1528 3.36639 52.1646 11.0051 52.3924 12.7185C53.3446 11.195 54.9991 3.9869 53.9864 3.57669ZM67.2707 3.68297C65.4368 3.47267 65.4487 11.1114 65.6764 12.8249C66.6287 11.3013 68.2832 4.09315 67.2707 3.68297ZM80.3421 3.12953C77.4851 3.70324 78.1504 13.2289 78.5843 14.8995C81.9496 10.2774 82.0189 2.95592 80.3421 3.12953ZM91.0493 15.0334C90.9041 14.426 90.1778 14.1014 89.6764 14.1814C88.242 14.3773 86.8507 16.1639 87.3892 18.8839C87.5091 19.4897 87.8091 20.0473 87.8042 20.0288C91.0146 17.8749 91.2875 16.1777 91.0493 15.0334ZM30.5533 10.4862C30.1433 10.4863 29.7425 10.3648 29.4016 10.1371C29.0607 9.90934 28.7949 9.58563 28.6379 9.20685C28.4809 8.82809 28.4399 8.41127 28.5199 8.00915C28.5997 7.60702 28.7972 7.23764 29.0871 6.94771C29.377 6.65777 29.7463 6.46032 30.1484 6.38032C30.5505 6.30032 30.9674 6.34136 31.3462 6.49827C31.725 6.65517 32.0487 6.92088 32.2764 7.26178C32.5042 7.60269 32.6258 8.00349 32.6258 8.41348C32.6258 8.68567 32.5722 8.95519 32.468 9.20665C32.3639 9.45813 32.2113 9.68661 32.0188 9.87909C31.8263 10.0716 31.5979 10.2242 31.3464 10.3284C31.095 10.4326 30.8255 10.4862 30.5533 10.4862Z" fill="#0D0C22"/>
</svg>

<svg xmlns="http://www.w3.org/2000/svg" width="237.037" height="64" fill="none" viewBox="0 0 100 27"><path fill="#0D0C22" fill-rule="evenodd" d="M99.845 19.943c-4.179 7.085-10.797 5.03-12.784 3.42-.846.574-2.33 1.832-4.308 1.686-4.212-.309-5.72-6.328-5.72-6.328.03.024-1.255.443-1.95.436-.008 1.765-1.534 5.982-5.653 5.928-4.62-.06-5.56-6.945-5.56-6.945s-.46.639-2.209 1.274c.088-1.356.024 5.464-5.515 5.565-4.378.08-5.56-6.945-5.56-6.945s-.76.789-2.232 1.063c.094-1.379-.059 5.905-5.598 5.882-3.743-.016-5.022-4.327-4.923-4.926.127-.762-1.265 5.033-4.901 4.943-1.5-.044-2.62-1.13-3.322-2.58-.94 1.076-2.304 2.58-3.834 2.58-2.747 0-3.959-2.298-3.753-8.861.017-.779-.04-1.085-.813-1.201-.465-.078-.94-.225-1.443-.302-.162.538-1.53 10.189-6.234 10.372-1.579.061-2.442-1.306-3.15-2.32-1.087 1.436-2.521 2.365-4.564 2.365C2.358 25.05 0 22.252 0 18.801c0-3.452 2.358-6.25 5.819-6.25.612 0 .783.088 1.342.252C6.011 2.336 8.727.7 11.101.7c2.281 0 6.176 5.292.695 18.716 1.217 4.003 3.84 3.777 5.101-4.465.257-1.676-.43-3.937.638-4.252 1.95-.577 2.157 1.153 3.072 1.442.967.304 1.532.275 2.46.469 1.587.31 2.206 1.162 2.012 3.06-.232 2.401-.638 5.897.6 6.323.893.31 2.523-1.542 2.809-2.555.286-1.013.346-1.36.371-2.103.039-1.588.087-2.752.358-3.953.116-.464.248-.772.774-.793.433-.011 1.224-.142 1.572.13.464.348.406.702.353 1.634-.54 13.28 3.615 6.65 4.854 1.342C36.33 9.692 36.632.81 40.394.661c1.956-.078 2.82 1.49 2.916 2.66.269 3.303-1.238 8.776-3.22 12.456-1.133 7.51 4.953 8.995 5.926 3-1.592-.756-3.313-3.82-1.913-5.314.786-.838 4.057.366 4.11 2.992 1.605-.43 1.82-1.335 1.841-1.185-.44-6.003-.032-14.46 3.73-14.61C55.74.584 56.605 2.15 56.7 3.32c.27 3.304-1.238 8.777-3.22 12.458-1.133 7.51 4.953 8.994 5.926 3-1.179-.227-3.667-3.487-2.231-5.315.767-.977 4.026 1.055 4.39 3.079 1.542-.436 1.751-1.314 1.774-1.166-.442-6.002-.033-14.46 3.73-14.609 1.955-.077 2.82 1.49 2.915 2.66.27 3.304-1.238 8.776-3.22 12.457-1.133 7.51 4.953 8.994 5.927 3-1.62-.27-3.923-3.711-2.07-5.472.74-.703 3.57 1.123 4.232 3.206.92-.035 1.493-.353 1.615-.385C75 9.187 76.093.731 80.14.661c2.187-.038 4.325 1.182 3.387 7.886-.896 6.397-4.117 9.081-4.11 9.122.188.767 1.84 7.18 6.002 3.796-.215-.488-.431-.986-.551-1.59-.69-3.516.665-7.488 4.347-8.13 2.11-.368 4.097.66 4.411 2.975.517 3.789-2.904 6.533-4.206 7.128-.582-.33 5.283 3.43 8.764-4.107.201-.43.445-.394.76-.172.223.156 1.491 1.358.901 2.374ZM8.336 17.87c-.177-.529-.54-1.696-.669-2.201-.708-.616-1.213-.716-2.122-.716-2.019 0-3.207 1.867-3.207 3.88s1.295 3.88 3.314 3.88c1.75 0 3.081-1.19 3.488-2.874-.285-.656-.567-1.26-.804-1.969ZM11.052 3.47c-1.418 0-1.9 3.385-1.806 6.272.082 2.553.796 4.8 1.166 5.807.094.126.076.044.16.178 2.463-5.397 1.442-12.257.48-12.257Zm29.544.107c-1.833-.21-1.822 7.428-1.594 9.142.952-1.524 2.607-8.732 1.594-9.142Zm13.39 0c-1.833-.21-1.821 7.428-1.594 9.142.953-1.524 2.607-8.732 1.594-9.142Zm13.285.106c-1.834-.21-1.822 7.428-1.595 9.142.953-1.524 2.607-8.732 1.595-9.142Zm13.071-.553c-2.857.573-2.192 10.099-1.758 11.77 3.366-4.623 3.435-11.944 1.758-11.77ZM91.05 15.033c-.145-.607-.871-.932-1.373-.852-1.434.196-2.825 1.983-2.287 4.703.12.606.42 1.163.415 1.145 3.21-2.154 3.483-3.851 3.245-4.996Zm-60.496-4.547a2.073 2.073 0 1 1 0-4.145 2.073 2.073 0 0 1 0 4.145Z" clip-rule="evenodd"/></svg>
